X: 1
T:Atholl Brose
M:C
L:1/8
Q:80
C:Trad.
S:Strathspey
K:HP
|: e|
{gcd}c/2{e}A3/2{gAGAG}A2{gef}e3/2A/2{gAGAG}Ad|
{gcd}c/2{e}A3/2{gAGAG}A3/2e/2{ag}a3/2f/2{gef}e3/2d/2|
{gcd}c/2{e}A3/2{gAGAG}A2{gef}e3/2A/2{gAGAG}Ac|  !
{g}B/2c/2d{g}G3/2{d}B/2{gf}gG{Gdc}d3/2B/2:|
{g}c/2e3/2{gf}g3/2e/2{ag}a3/2e/2{gf}g3/2e/2|
{g}c/2e3/2{gf}g3/2e/2{ag}a2{GdG}a3/2d/2|  !
{g}c/2e3/2{gf}g3/2e/2{ag}a3/2e/2{gf}g3/2f/2|
{gef}e3/2d/2{gf}g3/2d/2{gBd}B/2{e}G3/2{Gdc}d3/2B/2{g}c/2e3/2{gf}g3/2e/2{
ag}a3/2e/2{gf}g3/2e/2|
{g}c/2e3/2{gf}g3/2e/2{ag}a2{GdG}a3/2d/2|  !
{g}c/2{GdG}e3/2{gf}ga{f}g3/2e/2{g}f3/2d/2|
{g}e/2f/2g{Gdc}d3/2c/2{gBd}B/2{e}G3/2{Gdc}d2|]
